X: 1
T: Angelfire
M: 4/4
L: 1/8
R: reel
K: Ddor
|: D2DF EDCA, | A,CDE FEDC | D2ED F2G2 | A3_B AGFE |
D2DF EDCA, | A,CDE FEDC | E2EF EDCA, | AGFE D2 (3A,B,C :|
|: DEFG A2AB | cBAG A4 | AGFE FEDC | FEDC D4 | 
DEFG A2AB | cBAG A3A | A2G2 F2E2 | FEDC D2 (3A,B,C :|
